X:408
T:Glencoe Village Hall
T:Glencoe March, The
C:Dan R MacDonald
D:Aly Bain/Phil Cunningham: The Ruby
Z:Nigel Gatherer
M:4/4
L:1/8
K:D
F>G | A2 d2     F2 d2  | A>FA<d f2 fg/a/ | g3   e c>AB>c | d>cd>B A2
F>G | A2 d2     F2 d2  | A>FA<d f2 fg/a/ | g3   e c>AB>c | d2 d>c d2 :||
f>g | a2 a>g    f>df<a | g2 g>e c>Ac<e   | d>cd<e f>ef<a | g>fg<b a2
f>g | a2 a>g    f>df<a | g2 g>e c>Ac<e   | d>cd>f e<ac<e | d2 d>c d2
f>g | a2 a>g    f>df<a | g2 g>e c>Ac<e   | d>cd<e f>ef<a | g>fg<b a2
f>g | a/g/f g>e f>de<c | d>BA>F D>FA<d   | B>GB<d c>Ac<e | d2 d>c d2 |]
<end>
<start>
